src/asset/cabinet/commerce_icon.svg

<svg width="24" height="24" viewBox="0 0 24 24" fill="none" xmlns="http://www.w3.org/2000/svg">
    <path d="M2 3C1.44772 3 1 3.44772 1 4C1 4.55228 1.44772 5 2 5V3ZM18 16C18.5523 16 19 15.5523 19 15C19 14.4477 18.5523 14 18 14V16ZM19.5216 8.39223L20.5021 8.58835L19.5216 8.39223ZM19.2971 9.51433L20.2777 9.71044L19.2971 9.51433ZM2 5H2.33085V3H2V5ZM7.66915 16H18V14H7.66915V16ZM17.5604 5H4.72727V7H17.5604V5ZM18.541 8.19612L18.3166 9.31821L20.2777 9.71044L20.5021 8.58835L18.541 8.19612ZM17.4127 10.1191L5.9233 11.0029L6.0767 12.9971L17.5661 12.1133L17.4127 10.1191ZM3.31472 5.82111L4.71754 13.5367L6.68528 13.1789L5.28246 5.46334L3.31472 5.82111ZM17.5604 7C18.1914 7 18.6647 7.57732 18.541 8.19612L20.5021 8.58835C20.8734 6.73197 19.4535 5 17.5604 5V7ZM7.66915 14C7.18587 14 6.77174 13.6544 6.68528 13.1789L4.71754 13.5367C4.9769 14.9631 6.21929 16 7.66915 16V14ZM18.3166 9.31821C18.2287 9.75752 17.8594 10.0848 17.4127 10.1191L17.5661 12.1133C18.9061 12.0102 20.0141 11.0284 20.2777 9.71044L18.3166 9.31821ZM2.33085 5C2.81413 5 3.22826 5.34562 3.31472 5.82111L5.28246 5.46334C5.0231 4.03687 3.78071 3 2.33085 3V5Z" fill="currentColor"/>
    <circle cx="7" cy="19" r="1" stroke="currentColor" stroke-width="2"/>
    <circle cx="17" cy="19" r="1" stroke="currentColor" stroke-width="2"/>
</svg>

<svg width="24" height="24" fill="none" xmlns="http://www.w3.org/2000/svg"><path d="M2 3a1 1 0 000 2V3zm16 13a1 1 0 100-2v2zm1.522-7.608l.98.196-.98-.196zm-.225 1.122l.98.196-.98-.196zM2 5h.33V3H2v2zm5.67 11H18v-2H7.67v2zm9.89-11H4.727v2H17.56V5zm.981 3.196l-.224 1.122 1.96.392.225-1.122-1.961-.392zm-1.128 1.923l-11.49.884.154 1.994 11.49-.884-.154-1.994zM3.315 5.821l1.403 7.716 1.967-.358-1.403-7.716-1.967.358zM17.56 7a1 1 0 01.981 1.196l1.961.392A3 3 0 0017.56 5v2zm-9.89 7a1 1 0 01-.985-.821l-1.967.358A3 3 0 007.669 16v-2zm10.647-4.682a1 1 0 01-.904.801l.153 1.994a3 3 0 002.712-2.403l-1.961-.392zM2.33 5a1 1 0 01.984.821l1.967-.358A3 3 0 002.331 3v2z" fill="currentColor"/><circle cx="7" cy="19" r="1" stroke="currentColor" stroke-width="2"/><circle cx="17" cy="19" r="1" stroke="currentColor" stroke-width="2"/></svg>
